;FLAVOR:Marlin
;TIME:6283
;Filament used: 4.05522m
;Layer height: 0.2
;MINX:84.7
;MINY:117.2
;MINZ:0.2
;MAXX:215.3
;MAXY:182.8
;MAXZ:29
;Generated with Cura_SteamEngine 4.13.0
M140 S50
M105
M190 S50
M104 S200
M105
M109 S200
M82 ;absolute extrusion mode
M201 X500.00 Y500.00 Z100.00 E5000.00 ;Setup machine max acceleration
M203 X500.00 Y500.00 Z10.00 E50.00 ;Setup machine max feedrate
M204 P500.00 R1000.00 T500.00 ;Setup Print/Retract/Travel acceleration
M205 X8.00 Y8.00 Z0.40 E5.00 ;Setup Jerk
M220 S100 ;Reset Feedrate
M221 S100 ;Reset Flowrate

G28 ;Home
G29 ;Auto bed Level

G92 E0 ;Reset Extruder
G1 Z2.0 F3000 ;Move Z Axis up
G1 X10.1 Y20 Z0.28 F5000.0 ;Move to start position
G1 X10.1 Y200.0 Z0.28 F1500.0 E15 ;Draw the first line
G1 X10.4 Y200.0 Z0.28 F5000.0 ;Move to side a little
G1 X10.4 Y20 Z0.28 F1500.0 E30 ;Draw the second line
G92 E0 ;Reset Extruder
G1 Z2.0 F3000 ;Move Z Axis up

G92 E0
G92 E0
G1 F2700 E-5
;LAYER_COUNT:145
;LAYER:0
M107
G0 F6000 X88.705 Y119.613 Z0.2
;TYPE:SKIRT
G1 F2700 E0
G1 F1200 X89.661 Y118.919 E0.03929
G1 X90.036 Y118.688 E0.05394
G1 X90.729 Y118.308 E0.08023
G1 X91.216 Y118.092 E0.09795
G1 X91.666 Y117.911 E0.11408
G1 X92.677 Y117.583 E0.14943
G1 X93.103 Y117.476 E0.16404
G1 X93.878 Y117.323 E0.19031
G1 X94.399 Y117.264 E0.20775
G1 X94.927 Y117.223 E0.22537
G1 X95.531 Y117.2 E0.24547
G1 X99.518 Y117.2 E0.37808
G1 X100.125 Y117.224 E0.39828
G1 X100.535 Y117.256 E0.41196
G1 X101.13 Y117.325 E0.43188
G1 X101.239 Y117.342 E0.43555
G1 X101.86 Y117.465 E0.45661
G1 X102.222 Y117.552 E0.46899
G1 X102.979 Y117.775 E0.49524
G1 X103.404 Y117.938 E0.51038
G1 X103.883 Y118.138 E0.52764
G1 X104.596 Y118.479 E0.55393
G1 X104.992 Y118.709 E0.56916
G1 X105.385 Y118.953 E0.58455
G1 X106.335 Y119.647 E0.62368
G1 X106.683 Y119.944 E0.6389
G1 X107.256 Y120.486 E0.66513
G1 X107.54 Y120.799 E0.67919
G1 X107.847 Y121.157 E0.69487
G1 X108.33 Y121.782 E0.72114
G1 X108.596 Y122.191 E0.73737
G1 X108.844 Y122.6 E0.75328
G1 X109.36 Y123.611 E0.79103
G1 X109.547 Y124.054 E0.80702
G1 X109.817 Y124.796 E0.83329
G1 X109.934 Y125.22 E0.84792
G1 X110.024 Y125.585 E0.86042
G1 X110.174 Y126.36 E0.88667
G1 X110.226 Y126.833 E0.9025
G1 X110.275 Y127.449 E0.92305
G1 X110.3 Y128.067 E0.94363
G1 X110.3 Y130.2 E1.01457
G1 X145.52 Y130.2 E2.18599
G1 X146.161 Y130.226 E2.20733
G1 X147.543 Y130.34 E2.25345
G1 X148.693 Y130.522 E2.29218
G1 X150.062 Y130.845 E2.33896
G1 X150.821 Y131.065 E2.36524
G1 X151.246 Y131.227 E2.38037
G1 X152.562 Y131.77 E2.42772
G1 X153.276 Y132.107 E2.45398
G1 X153.682 Y132.342 E2.46958
G1 X154.888 Y133.086 E2.51671
G1 X155.539 Y133.534 E2.543
G1 X155.851 Y133.786 E2.55634
G1 X156.91 Y134.688 E2.6026
G1 X157.484 Y135.23 E2.62886
G1 X157.773 Y135.548 E2.64315
G1 X158.701 Y136.63 E2.69056
G1 X159.325 Y137.466 E2.72526
G1 X159.536 Y137.795 E2.73826
G1 X160.104 Y138.722 E2.77442
G1 X160.334 Y139.124 E2.78983
G1 X160.421 Y139.287 E2.79597
G1 X160.742 Y139.965 E2.82092
G1 X161.263 Y141.218 E2.86605
G1 X161.529 Y141.962 E2.89233
G1 X161.653 Y142.422 E2.90818
G1 X161.983 Y143.821 E2.95599
G1 X162.165 Y144.973 E2.99478
G1 X162.274 Y146.3 E3.03906
G1 X162.3 Y146.939 E3.06033
G1 X162.3 Y160.2 E3.5014
G1 X204.508 Y160.2 E4.90524
G1 X205.126 Y160.225 E4.92581
G1 X205.579 Y160.261 E4.94093
G1 X205.944 Y160.298 E4.95313
G1 X206.822 Y160.459 E4.98282
G1 X207.278 Y160.57 E4.99843
G1 X208.035 Y160.796 E5.0247
G1 X208.44 Y160.952 E5.03914
G1 X208.878 Y161.135 E5.05493
G1 X209.59 Y161.476 E5.08118
G1 X209.963 Y161.691 E5.0955
G1 X210.359 Y161.935 E5.11097
G1 X211.009 Y162.383 E5.13723
G1 X211.346 Y162.656 E5.15166
G1 X211.705 Y162.964 E5.16739
G1 X212.277 Y163.508 E5.19364
G1 X212.569 Y163.832 E5.20815
G1 X212.875 Y164.192 E5.22386
G1 X213.355 Y164.819 E5.25013
G1 X213.582 Y165.168 E5.26398
G1 X213.818 Y165.553 E5.27899
G1 X214.196 Y166.246 E5.30525
G1 X214.365 Y166.622 E5.31896
G1 X214.548 Y167.06 E5.33475
G1 X214.815 Y167.803 E5.36101
G1 X214.934 Y168.238 E5.37601
G1 X215.044 Y168.694 E5.39161
G1 X215.091 Y168.903 E5.39874
G1 X215.239 Y169.915 E5.43275
G1 X215.275 Y170.365 E5.44777
G1 X215.3 Y170.987 E5.46847
G1 X215.3 Y172.011 E5.50253
G1 X215.275 Y172.633 E5.52323
G1 X215.239 Y173.083 E5.53825
G1 X215.202 Y173.444 E5.55032
G1 X215.043 Y174.314 E5.57974
G1 X214.933 Y174.768 E5.59527
G1 X214.708 Y175.525 E5.62154
G1 X214.552 Y175.932 E5.63604
G1 X214.369 Y176.371 E5.65185
G1 X214.028 Y177.084 E5.67814
G1 X213.807 Y177.466 E5.69282
G1 X213.562 Y177.863 E5.70834
G1 X213.114 Y178.514 E5.73462
G1 X212.844 Y178.846 E5.74885
G1 X212.536 Y179.205 E5.76459
G1 X211.992 Y179.777 E5.79084
G1 X211.68 Y180.059 E5.80483
G1 X211.332 Y180.356 E5.82005
G1 X210.706 Y180.838 E5.84632
G1 X210.364 Y181.061 E5.8599
G1 X209.967 Y181.306 E5.87542
G1 X209.275 Y181.686 E5.90168
G1 X208.878 Y181.865 E5.91616
G1 X208.44 Y182.048 E5.93195
G1 X207.697 Y182.315 E5.95821
G1 X207.256 Y182.435 E5.97341
G1 X206.786 Y182.548 E5.98949
G1 X206.01 Y182.693 E6.01574
G1 X205.578 Y182.74 E6.0302
G1 X205.123 Y182.776 E6.04538
G1 X204.508 Y182.8 E6.06585
G1 X150.492 Y182.8 E7.86243
G1 X149.874 Y182.775 E7.883
G1 X149.421 Y182.739 E7.89811
G1 X149.056 Y182.702 E7.91032
G1 X148.178 Y182.541 E7.94001
G1 X147.722 Y182.43 E7.95562
G1 X146.965 Y182.204 E7.98189
G1 X146.56 Y182.048 E7.99633
G1 X146.122 Y181.865 E8.01211
G1 X145.41 Y181.524 E8.03837
G1 X145.033 Y181.306 E8.05286
G1 X144.636 Y181.061 E8.06837
G1 X143.985 Y180.613 E8.09466
G1 X143.653 Y180.343 E8.10889
G1 X143.294 Y180.035 E8.12462
G1 X142.722 Y179.491 E8.15088
G1 X142.44 Y179.179 E8.16486
G1 X142.143 Y178.831 E8.18008
G1 X141.661 Y178.205 E8.20636
G1 X141.438 Y177.863 E8.21994
G1 X141.193 Y177.466 E8.23545
G1 X140.813 Y176.774 E8.26171
G1 X140.631 Y176.371 E8.27642
G1 X140.448 Y175.932 E8.29224
G1 X140.182 Y175.189 E8.31849
G1 X140.062 Y174.746 E8.33375
G1 X139.95 Y174.278 E8.34976
G1 X139.806 Y173.502 E8.37601
G1 X139.761 Y173.085 E8.38996
G1 X139.725 Y172.635 E8.40497
G1 X139.7 Y172.013 E8.42568
G1 X139.7 Y168.117 E8.55526
G1 X139.721 Y167.707 E8.56891
G1 X139.71 Y167.602 E8.57243
G1 X139.7 Y167.2 E8.5858
G1 X139.7 Y154.308 E9.01459
G1 X139.658 Y153.806 E9.03134
G1 X139.56 Y153.49 E9.04235
G1 X139.32 Y153.158 E9.05597
G1 X139.023 Y152.946 E9.06811
G1 X138.682 Y152.84 E9.07999
G1 X138.199 Y152.8 E9.09611
G1 X95.434 Y152.8 E10.51848
G1 X94.806 Y152.775 E10.53938
G1 X94.484 Y152.749 E10.55013
G1 X93.912 Y152.681 E10.56928
G1 X93.79 Y152.662 E10.57339
G1 X93.175 Y152.541 E10.59424
G1 X92.757 Y152.441 E10.60853
G1 X91.999 Y152.219 E10.6348
G1 X91.522 Y152.034 E10.65182
G1 X91.063 Y151.839 E10.66841
G1 X90.353 Y151.494 E10.69466
G1 X89.958 Y151.261 E10.70991
G1 X89.572 Y151.018 E10.72509
G1 X88.667 Y150.353 E10.76244
G1 X88.328 Y150.064 E10.77725
G1 X87.753 Y149.522 E10.80354
G1 X87.482 Y149.223 E10.81696
G1 X87.162 Y148.852 E10.83325
G1 X86.677 Y148.228 E10.85954
G1 X86.402 Y147.807 E10.87626
G1 X86.159 Y147.407 E10.89183
G1 X85.783 Y146.712 E10.91811
G1 X85.611 Y146.324 E10.93223
G1 X85.43 Y145.884 E10.94805
G1 X85.065 Y144.762 E10.9873
G1 X84.962 Y144.339 E11.00178
G1 X84.815 Y143.564 E11.02801
G1 X84.766 Y143.117 E11.04297
G1 X84.725 Y142.605 E11.06005
G1 X84.7 Y141.982 E11.08079
G1 X84.7 Y127.962 E11.5471
G1 X84.728 Y127.307 E11.5689
G1 X84.767 Y126.844 E11.58436
G1 X84.873 Y126.062 E11.6106
G1 X84.981 Y125.569 E11.62739
G1 X85.089 Y125.146 E11.64191
G1 X85.414 Y124.157 E11.67654
G1 X85.571 Y123.768 E11.69049
G1 X85.865 Y123.124 E11.71403
G1 X85.903 Y123.05 E11.7168
G1 X86.205 Y122.515 E11.73723
G1 X86.452 Y122.115 E11.75287
G1 X87.139 Y121.169 E11.79176
G1 X87.412 Y120.847 E11.8058
G1 X87.953 Y120.271 E11.83208
G1 X88.315 Y119.944 E11.8483
G1 X88.705 Y119.613 E11.86532
G0 F6000 X88.964 Y119.918
G1 F1200 X89.871 Y119.259 E11.90261
G1 X90.246 Y119.028 E11.91726
G1 X90.921 Y118.66 E11.94283
G1 X91.366 Y118.464 E11.959
G1 X91.816 Y118.283 E11.97513
G1 X92.774 Y117.971 E12.00864
G1 X93.2 Y117.864 E12.02325
G1 X93.955 Y117.716 E12.04884
G1 X94.43 Y117.663 E12.06474
G1 X94.958 Y117.622 E12.08235
G1 X95.531 Y117.6 E12.10142
G1 X99.518 Y117.6 E12.23403
G1 X100.094 Y117.622 E12.2532
G1 X100.504 Y117.654 E12.26688
G1 X101.068 Y117.72 E12.28577
G1 X101.177 Y117.737 E12.28944
G1 X101.766 Y117.854 E12.30941
G1 X102.128 Y117.941 E12.32179
G1 X102.866 Y118.159 E12.34739
G1 X103.25 Y118.307 E12.36108
G1 X103.729 Y118.507 E12.37834
G1 X104.423 Y118.84 E12.40394
G1 X104.781 Y119.049 E12.41773
G1 X105.174 Y119.293 E12.43312
G1 X106.075 Y119.951 E12.47022
G1 X106.423 Y120.248 E12.48544
G1 X107.236 Y121.06 E12.52366
G1 X107.543 Y121.418 E12.53934
G1 X108.013 Y122.027 E12.56493
G1 X108.254 Y122.398 E12.57964
G1 X108.502 Y122.807 E12.59555
G1 X108.991 Y123.766 E12.63136
G1 X109.178 Y124.209 E12.64735
G1 X109.44 Y124.932 E12.67293
G1 X109.546 Y125.315 E12.68614
G1 X109.636 Y125.68 E12.69865
G1 X109.781 Y126.436 E12.72425
G1 X109.828 Y126.865 E12.73861
G1 X109.877 Y127.481 E12.75916
G1 X109.9 Y128.067 E12.77866
G1 X109.9 Y130.6 E12.86291
G1 X145.52 Y130.6 E14.04764
G1 X146.128 Y130.625 E14.06788
G1 X147.51 Y130.739 E14.114
G1 X148.601 Y130.912 E14.15074
G1 X149.97 Y131.235 E14.19752
G1 X150.709 Y131.45 E14.22312
G1 X151.094 Y131.596 E14.23682
G1 X152.41 Y132.139 E14.28417
G1 X153.104 Y132.469 E14.30972
G1 X153.472 Y132.682 E14.32387
G1 X154.678 Y133.426 E14.371
G1 X155.591 Y134.091 E14.40856
G1 X156.65 Y134.993 E14.45483
G1 X157.209 Y135.521 E14.48041
G1 X157.469 Y135.808 E14.49329
G1 X158.397 Y136.89 E14.5407
G1 X158.99 Y137.683 E14.57363
G1 X159.195 Y138.004 E14.5863
G1 X159.763 Y138.931 E14.62246
G1 X159.981 Y139.313 E14.63709
G1 X160.068 Y139.476 E14.64323
G1 X160.373 Y140.119 E14.6669
G1 X160.894 Y141.372 E14.71204
G1 X161.152 Y142.096 E14.7376
G1 X161.263 Y142.514 E14.75199
G1 X161.593 Y143.913 E14.79979
G1 X161.766 Y145.006 E14.8366
G1 X161.875 Y146.333 E14.88088
G1 X161.9 Y146.939 E14.90106
G1 X161.9 Y160.6 E15.35542
G1 X204.508 Y160.6 E16.77257
G1 X205.094 Y160.623 E16.79208
G1 X205.547 Y160.659 E16.80719
G1 X205.895 Y160.695 E16.81883
G1 X206.727 Y160.848 E16.84696
G1 X207.183 Y160.959 E16.86257
G1 X207.92 Y161.179 E16.88816
G1 X208.286 Y161.321 E16.90121
G1 X208.724 Y161.504 E16.917
G1 X209.417 Y161.837 E16.94257
G1 X209.753 Y162.032 E16.95549
G1 X210.149 Y162.276 E16.97097
G1 X210.782 Y162.713 E16.99655
G1 X211.085 Y162.96 E17.00955
G1 X211.444 Y163.268 E17.02528
G1 X212.001 Y163.798 E17.05086
G1 X212.264 Y164.091 E17.06395
G1 X212.57 Y164.451 E17.07967
G1 X213.241 Y165.377 E17.1177
G1 X213.477 Y165.762 E17.13272
G1 X213.996 Y166.776 E17.17061
G1 X214.179 Y167.214 E17.1864
G1 X214.438 Y167.938 E17.21197
G1 X214.545 Y168.332 E17.22555
G1 X214.655 Y168.788 E17.24115
G1 X214.7 Y168.986 E17.2479
G1 X214.84 Y169.947 E17.2802
G1 X214.876 Y170.397 E17.29522
G1 X214.9 Y170.987 E17.31486
G1 X214.9 Y172.011 E17.34892
G1 X214.876 Y172.601 E17.36856
G1 X214.84 Y173.051 E17.38357
G1 X214.805 Y173.395 E17.39507
G1 X214.654 Y174.22 E17.42297
G1 X214.544 Y174.674 E17.4385
G1 X214.324 Y175.411 E17.46409
G1 X214.182 Y175.778 E17.47717
G1 X213.999 Y176.217 E17.49299
G1 X213.667 Y176.911 E17.51858
G1 X213.466 Y177.256 E17.53186
G1 X213.221 Y177.653 E17.54738
G1 X212.784 Y178.286 E17.57296
G1 X212.54 Y178.585 E17.5858
G1 X212.232 Y178.944 E17.60153
G1 X211.42 Y179.755 E17.6397
G1 X211.072 Y180.052 E17.65492
G1 X210.154 Y180.72 E17.69268
G1 X209.757 Y180.965 E17.70819
G1 X209.083 Y181.335 E17.73377
G1 X208.724 Y181.496 E17.74685
G1 X208.286 Y181.679 E17.76264
G1 X207.562 Y181.938 E17.78822
G1 X207.163 Y182.046 E17.80197
G1 X206.693 Y182.159 E17.81804
G1 X205.937 Y182.3 E17.84362
G1 X205.547 Y182.341 E17.85666
G1 X205.092 Y182.377 E17.87184
G1 X204.508 Y182.4 E17.89128
G1 X150.492 Y182.4 E19.68786
G1 X149.906 Y182.377 E19.70737
G1 X149.453 Y182.341 E19.72248
G1 X149.105 Y182.305 E19.73412
G1 X148.273 Y182.152 E19.76226
G1 X147.817 Y182.041 E19.77787
G1 X147.08 Y181.821 E19.80345
G1 X146.714 Y181.679 E19.8165
G1 X146.276 Y181.496 E19.83229
G1 X145.583 Y181.163 E19.85786
G1 X145.243 Y180.965 E19.87095
G1 X144.846 Y180.72 E19.88647
G1 X144.213 Y180.283 E19.91205
G1 X143.914 Y180.039 E19.92489
G1 X143.555 Y179.731 E19.94062
G1 X142.744 Y178.919 E19.97879
G1 X142.447 Y178.571 E19.99401
G1 X141.779 Y177.653 E20.03177
G1 X141.534 Y177.256 E20.04728
G1 X141.164 Y176.582 E20.07286
G1 X141.001 Y176.217 E20.08615
G1 X140.818 Y175.778 E20.10197
G1 X140.559 Y175.054 E20.12755
G1 X140.451 Y174.653 E20.14136
G1 X140.339 Y174.185 E20.15736
G1 X140.16 Y173.053 E20.19548
G1 X140.124 Y172.603 E20.2105
G1 X140.1 Y172.013 E20.23014
G1 X140.1 Y168.117 E20.35972
G1 X140.125 Y167.635 E20.37577
G1 X140.1 Y167.2 E20.39026
G1 X140.1 Y154.287 E20.81975
G1 X140.055 Y153.75 E20.83767
G1 X139.997 Y153.501 E20.84618
G1 X139.917 Y153.307 E20.85316
G1 X139.772 Y153.072 E20.86234
G1 X139.604 Y152.875 E20.87095
G1 X139.429 Y152.725 E20.87862
G1 X139.211 Y152.592 E20.88711
G1 X139.002 Y152.505 E20.89464
G1 X138.736 Y152.443 E20.90373
G1 X138.22 Y152.4 E20.92095
G1 X95.434 Y152.4 E22.34402
G1 X94.838 Y152.376 E22.36386
G1 X94.516 Y152.35 E22.3746
G1 X93.973 Y152.286 E22.39279
G1 X93.851 Y152.267 E22.39689
G1 X93.268 Y152.152 E22.41666
G1 X92.85 Y152.052 E22.43095
G1 X92.113 Y151.834 E22.45651
G1 X91.679 Y151.666 E22.47199
G1 X91.22 Y151.471 E22.48858
G1 X90.528 Y151.134 E22.51418
G1 X90.171 Y150.922 E22.52799
G1 X89.785 Y150.679 E22.54316
G1 X88.926 Y150.048 E22.57861
G1 X88.587 Y149.759 E22.59343
G1 X87.784 Y148.961 E22.63108
G1 X87.464 Y148.59 E22.64738
G1 X86.993 Y147.982 E22.67296
G1 X86.744 Y147.599 E22.68815
G1 X86.501 Y147.199 E22.70372
G1 X85.981 Y146.172 E22.742
G1 X85.8 Y145.732 E22.75783
G1 X85.454 Y144.668 E22.79504
G1 X85.351 Y144.245 E22.80952
G1 X85.208 Y143.489 E22.83511
G1 X85.165 Y143.085 E22.84862
G1 X85.124 Y142.573 E22.86571
G1 X85.1 Y141.982 E22.88538
G1 X85.1 Y127.962 E23.35169
G1 X85.126 Y127.341 E23.37236
G1 X85.165 Y126.878 E23.38781
G1 X85.269 Y126.116 E23.41339
G1 X85.369 Y125.668 E23.42866
G1 X85.477 Y125.245 E23.44318
G1 X85.785 Y124.306 E23.47605
G1 X85.942 Y123.917 E23.49
G1 X86.221 Y123.307 E23.51231
G1 X86.259 Y123.233 E23.51508
G1 X86.546 Y122.725 E23.53449
G1 X86.793 Y122.325 E23.55012
G1 X87.445 Y121.428 E23.587
G1 X87.718 Y121.106 E23.60105
G1 X88.245 Y120.545 E23.62665
G1 X88.574 Y120.249 E23.64137
G1 X88.964 Y119.918 E23.65838
G0 F6000 X89.222 Y120.223
G1 F1200 X90.081 Y119.6 E23.69367
G1 X90.456 Y119.369 E23.70832
G1 X91.113 Y119.011 E23.73321
G1 X91.515 Y118.835 E23.7478
G1 X91.965 Y118.654 E23.76394
G1 X92.872 Y118.359 E23.79566
G1 X93.298 Y118.252 E23.81027
G1 X94.032 Y118.109 E23.83514
G1 X94.461 Y118.062 E23.84949
G1 X94.989 Y118.021 E23.86711
G1 X95.531 Y118 E23.88515
G1 X99.518 Y118 E24.01776
G1 X100.063 Y118.021 E24.0359
G1 X100.473 Y118.053 E24.04957
G1 X101.007 Y118.116 E24.06746
G1 X101.116 Y118.133 E24.07113
G1 X101.673 Y118.243 E24.09001
G1 X102.035 Y118.33 E24.10239
G1 X103.096 Y118.676 E24.13951
G1 X103.575 Y118.876 E24.15678
G1 X104.57 Y119.389 E24.19401
G1 X104.963 Y119.633 E24.2094
G1 X105.815 Y120.255 E24.24448
G1 X106.163 Y120.552 E24.2597
G1 X106.933 Y121.32 E24.29587
G1 X107.24 Y121.678 E24.31155
G1 X107.696 Y122.271 E24.33644
G1 X107.912 Y122.606 E24.34969
G1 X108.16 Y123.015 E24.3656
G1 X108.623 Y123.922 E24.39947
G1 X108.81 Y124.365 E24.41546
G1 X109.157 Y125.411 E24.45212
G1 X109.247 Y125.776 E24.46462
G1 X109.387 Y126.511 E24.48951
G1 X109.429 Y126.897 E24.50242
G1 X109.478 Y127.513 E24.52298
G1 X109.5 Y128.067 E24.54142
G1 X109.5 Y131 E24.63897
G1 X145.52 Y131 E25.837
G1 X146.095 Y131.024 E25.85614
G1 X147.477 Y131.138 E25.90226
G1 X148.509 Y131.301 E25.93701
G1 X149.878 Y131.624 E25.98379
G1 X150.941 Y131.966 E26.02093
G1 X152.257 Y132.509 E26.06828
G1 X152.932 Y132.831 E26.09316
G1 X153.262 Y133.022 E26.10584
G1 X154.468 Y133.766 E26.15297
G1 X155.332 Y134.395 E26.18852
G1 X156.391 Y135.297 E26.23478
G1 X157.165 Y136.069 E26.27114
G1 X158.093 Y137.151 E26.31855
G1 X158.654 Y137.901 E26.34971
G1 X158.854 Y138.213 E26.36203
G1 X159.422 Y139.14 E26.39819
G1 X159.628 Y139.501 E26.41202
G1 X159.715 Y139.664 E26.41816
G1 X160.004 Y140.272 E26.44055
G1 X160.525 Y141.525 E26.48569
