;FLAVOR:Marlin
;TIME:3716
;Filament used: 2.58141m
;Layer height: 0.2
;MINX:119.5
;MINY:125.5
;MINZ:0.2
;MAXX:180.5
;MAXY:174.5
;MAXZ:16
;Generated with Cura_SteamEngine 4.13.0
M140 S50
M105
M190 S50
M104 S200
M105
M109 S200
M82 ;absolute extrusion mode
M201 X500.00 Y500.00 Z100.00 E5000.00 ;Setup machine max acceleration
M203 X500.00 Y500.00 Z10.00 E50.00 ;Setup machine max feedrate
M204 P500.00 R1000.00 T500.00 ;Setup Print/Retract/Travel acceleration
M205 X8.00 Y8.00 Z0.40 E5.00 ;Setup Jerk
M220 S100 ;Reset Feedrate
M221 S100 ;Reset Flowrate

G28 ;Home
G29 ;Auto bed Level

G92 E0 ;Reset Extruder
G1 Z2.0 F3000 ;Move Z Axis up
G1 X10.1 Y20 Z0.28 F5000.0 ;Move to start position
G1 X10.1 Y200.0 Z0.28 F1500.0 E15 ;Draw the first line
G1 X10.4 Y200.0 Z0.28 F5000.0 ;Move to side a little
G1 X10.4 Y20 Z0.28 F1500.0 E30 ;Draw the second line
G92 E0 ;Reset Extruder
G1 Z2.0 F3000 ;Move Z Axis up

G92 E0
G92 E0
G1 F2700 E-5
;LAYER_COUNT:80
;LAYER:0
M107
G0 F6000 X124.11 Y129.358 Z0.2
;TYPE:SKIRT
G1 F2700 E0
G1 F1200 X124.239 Y129.241 E0.00579
G1 X124.616 Y128.915 E0.02237
G1 X124.906 Y128.675 E0.03489
G1 X125.872 Y127.96 E0.07486
G1 X125.989 Y127.883 E0.07952
G1 X126.436 Y127.604 E0.09705
G1 X126.671 Y127.465 E0.10613
G1 X127.833 Y126.868 E0.14958
G1 X128.425 Y126.607 E0.1711
G1 X129.299 Y126.265 E0.20231
G1 X130.014 Y126.047 E0.22717
G1 X130.152 Y126.01 E0.23193
G1 X130.566 Y125.908 E0.24611
G1 X130.936 Y125.824 E0.25873
G1 X132.21 Y125.612 E0.30168
G1 X132.389 Y125.593 E0.30767
G1 X132.845 Y125.555 E0.32289
G1 X133.172 Y125.534 E0.33379
G1 X133.454 Y125.519 E0.34318
G1 X133.61 Y125.513 E0.34837
G1 X133.913 Y125.506 E0.35845
G1 X134.493 Y125.5 E0.37775
G1 X165.393 Y125.5 E1.40548
G1 X166.255 Y125.511 E1.43416
G1 X166.697 Y125.525 E1.44886
G1 X167.272 Y125.564 E1.46803
G1 X167.656 Y125.6 E1.48086
G1 X168.88 Y125.785 E1.52203
G1 X169.057 Y125.822 E1.52805
G1 X169.538 Y125.934 E1.54447
G1 X169.889 Y126.024 E1.55653
G1 X171.035 Y126.385 E1.59649
G1 X171.181 Y126.44 E1.60168
G1 X171.646 Y126.628 E1.61836
G1 X171.888 Y126.732 E1.62712
G1 X173.1 Y127.344 E1.67228
G1 X173.652 Y127.667 E1.69355
G1 X174.441 Y128.175 E1.72476
G1 X174.969 Y128.571 E1.74671
G1 X175.094 Y128.671 E1.75204
G1 X175.483 Y128.998 E1.76894
G1 X175.747 Y129.23 E1.78063
G1 X176.557 Y130.02 E1.81826
G1 X176.682 Y130.155 E1.82438
G1 X177.093 Y130.624 E1.84512
G1 X177.33 Y130.911 E1.8575
G1 X178.027 Y131.853 E1.89648
G1 X178.097 Y131.959 E1.9007
G1 X178.37 Y132.395 E1.91781
G1 X178.52 Y132.647 E1.92757
G1 X179.131 Y133.831 E1.97188
G1 X179.391 Y134.42 E1.99329
G1 X179.733 Y135.293 E2.02448
G1 X179.958 Y136.032 E2.05017
G1 X179.995 Y136.171 E2.05496
G1 X180.091 Y136.562 E2.06835
G1 X180.174 Y136.927 E2.0808
G1 X180.384 Y138.177 E2.12296
G1 X180.404 Y138.361 E2.12911
G1 X180.445 Y138.843 E2.1452
G1 X180.466 Y139.169 E2.15607
G1 X180.481 Y139.456 E2.16562
G1 X180.487 Y139.613 E2.17085
G1 X180.494 Y139.913 E2.18083
G1 X180.5 Y140.493 E2.20012
G1 X180.499 Y159.549 E2.83393
G1 X180.489 Y160.255 E2.85741
G1 X180.474 Y160.703 E2.87232
G1 X180.437 Y161.261 E2.89092
G1 X180.401 Y161.648 E2.90385
G1 X180.215 Y162.88 E2.94529
G1 X180.178 Y163.057 E2.9513
G1 X180.063 Y163.551 E2.96817
G1 X179.971 Y163.908 E2.98043
G1 X179.622 Y165.017 E3.0191
G1 X179.57 Y165.156 E3.02404
G1 X179.369 Y165.656 E3.04196
G1 X179.266 Y165.895 E3.05062
G1 X178.661 Y167.092 E3.09523
G1 X178.336 Y167.648 E3.11665
G1 X177.828 Y168.437 E3.14786
G1 X177.429 Y168.969 E3.16998
G1 X177.329 Y169.094 E3.1753
G1 X177.002 Y169.483 E3.1922
G1 X176.77 Y169.747 E3.20389
G1 X175.98 Y170.557 E3.24153
G1 X175.845 Y170.682 E3.24764
G1 X175.379 Y171.09 E3.26825
G1 X175.091 Y171.328 E3.28067
G1 X174.127 Y172.041 E3.32055
G1 X174.019 Y172.112 E3.32485
G1 X173.596 Y172.376 E3.34143
G1 X173.347 Y172.524 E3.35107
G1 X172.169 Y173.131 E3.39514
G1 X171.58 Y173.391 E3.41656
G1 X170.707 Y173.733 E3.44774
G1 X169.968 Y173.958 E3.47344
G1 X169.829 Y173.995 E3.47822
G1 X169.428 Y174.093 E3.49195
G1 X169.057 Y174.177 E3.5046
G1 X167.796 Y174.387 E3.54712
G1 X167.618 Y174.406 E3.55308
G1 X167.155 Y174.445 E3.56853
G1 X166.828 Y174.466 E3.57943
G1 X166.546 Y174.481 E3.58882
G1 X166.39 Y174.487 E3.59401
G1 X166.087 Y174.494 E3.60409
G1 X165.507 Y174.5 E3.62339
G1 X134.451 Y174.499 E4.65631
G1 X133.745 Y174.489 E4.6798
G1 X133.297 Y174.474 E4.6947
G1 X132.739 Y174.437 E4.7133
G1 X132.352 Y174.401 E4.72623
G1 X131.12 Y174.215 E4.76767
G1 X130.943 Y174.178 E4.77369
G1 X130.49 Y174.073 E4.78915
G1 X130.147 Y173.986 E4.80092
G1 X128.974 Y173.618 E4.84181
G1 X128.82 Y173.56 E4.84729
G1 X128.354 Y173.372 E4.864
G1 X128.112 Y173.268 E4.87276
G1 X126.9 Y172.656 E4.91792
G1 X126.348 Y172.333 E4.93919
G1 X125.559 Y171.825 E4.9704
G1 X125.031 Y171.429 E4.99235
G1 X124.906 Y171.329 E4.99768
G1 X124.502 Y170.989 E5.01524
G1 X124.231 Y170.75 E5.02726
G1 X123.422 Y169.958 E5.06491
G1 X123.303 Y169.829 E5.07075
G1 X122.909 Y169.378 E5.09067
G1 X122.671 Y169.09 E5.10309
G1 X121.921 Y168.068 E5.14526
G1 X121.838 Y167.94 E5.15033
G1 X121.602 Y167.559 E5.16524
G1 X121.467 Y167.331 E5.17405
G1 X120.869 Y166.169 E5.21752
G1 X120.609 Y165.58 E5.23893
G1 X120.267 Y164.707 E5.27011
G1 X120.05 Y163.995 E5.29487
G1 X120.011 Y163.85 E5.29987
G1 X119.901 Y163.404 E5.31514
G1 X119.819 Y163.039 E5.32759
G1 X119.61 Y161.77 E5.37036
G1 X119.591 Y161.588 E5.37645
G1 X119.555 Y161.16 E5.39073
G1 X119.534 Y160.837 E5.4015
G1 X119.513 Y160.39 E5.41638
G1 X119.506 Y160.087 E5.42646
G1 X119.5 Y159.507 E5.44576
G1 X119.501 Y140.451 E6.07956
G1 X119.511 Y139.744 E6.10308
G1 X119.526 Y139.294 E6.11805
G1 X119.563 Y138.739 E6.13655
G1 X119.599 Y138.352 E6.14948
G1 X119.785 Y137.12 E6.19092
G1 X119.822 Y136.943 E6.19694
G1 X119.939 Y136.442 E6.21405
G1 X120.031 Y136.086 E6.22628
G1 X120.39 Y134.953 E6.26581
G1 X120.447 Y134.802 E6.27118
G1 X120.636 Y134.333 E6.28799
G1 X120.736 Y134.101 E6.2964
G1 X121.344 Y132.9 E6.34117
G1 X121.667 Y132.348 E6.36244
G1 X122.175 Y131.559 E6.39365
G1 X122.571 Y131.031 E6.4156
G1 X122.671 Y130.906 E6.42093
G1 X122.998 Y130.517 E6.43783
G1 X123.237 Y130.245 E6.44987
G1 X124.11 Y129.358 E6.49127
G0 F6000 X124.379 Y129.654
G1 F1200 X124.508 Y129.537 E6.49706
G1 X124.871 Y129.223 E6.51302
G1 X125.161 Y128.983 E6.52554
G1 X126.092 Y128.294 E6.56407
G1 X126.209 Y128.217 E6.56872
G1 X126.64 Y127.948 E6.58562
G1 X126.875 Y127.809 E6.5947
G1 X127.995 Y127.234 E6.63658
G1 X128.587 Y126.973 E6.6581
G1 X129.445 Y126.638 E6.68873
G1 X130.118 Y126.434 E6.71212
G1 X130.256 Y126.397 E6.71687
G1 X130.654 Y126.298 E6.73051
G1 X131.024 Y126.214 E6.74313
G1 X132.252 Y126.01 E6.78454
G1 X132.431 Y125.991 E6.79052
G1 X132.871 Y125.954 E6.80521
G1 X133.198 Y125.933 E6.81611
G1 X133.626 Y125.913 E6.83036
G1 X133.918 Y125.906 E6.84007
G1 X134.493 Y125.9 E6.8592
G1 X165.393 Y125.9 E7.88694
G1 X166.249 Y125.911 E7.91541
G1 X166.68 Y125.925 E7.92975
G1 X167.234 Y125.962 E7.94822
G1 X167.618 Y125.998 E7.96105
G1 X168.798 Y126.176 E8.00074
G1 X168.975 Y126.213 E8.00675
G1 X169.439 Y126.321 E8.0226
G1 X169.79 Y126.411 E8.03465
G1 X170.894 Y126.76 E8.07316
G1 X171.04 Y126.815 E8.07835
G1 X171.488 Y126.995 E8.09441
G1 X171.73 Y127.099 E8.10317
G1 X172.898 Y127.689 E8.14669
G1 X173.45 Y128.012 E8.16796
G1 X174.224 Y128.511 E8.19859
G1 X174.719 Y128.884 E8.21921
G1 X174.844 Y128.984 E8.22453
G1 X175.219 Y129.299 E8.24082
G1 X175.483 Y129.531 E8.25251
G1 X176.264 Y130.291 E8.28876
G1 X176.389 Y130.426 E8.29488
G1 X176.784 Y130.879 E8.31487
G1 X177.021 Y131.166 E8.32725
G1 X177.693 Y132.074 E8.36482
G1 X177.763 Y132.18 E8.36904
G1 X178.027 Y132.599 E8.38551
G1 X178.177 Y132.851 E8.39527
G1 X178.765 Y133.992 E8.43796
G1 X179.025 Y134.581 E8.45937
G1 X179.36 Y135.439 E8.49001
G1 X179.571 Y136.135 E8.5142
G1 X179.608 Y136.274 E8.51898
G1 X179.701 Y136.651 E8.5319
G1 X179.784 Y137.016 E8.54435
G1 X179.986 Y138.221 E8.58499
G1 X180.006 Y138.405 E8.59114
G1 X180.046 Y138.869 E8.60663
G1 X180.067 Y139.195 E8.6175
G1 X180.087 Y139.628 E8.63191
G1 X180.094 Y139.918 E8.64156
G1 X180.1 Y140.493 E8.66069
G1 X180.099 Y159.543 E9.29429
G1 X180.089 Y160.249 E9.31778
G1 X180.081 Y160.543 E9.32756
G1 X180.075 Y160.686 E9.33232
G1 X180.038 Y161.224 E9.35026
G1 X180.002 Y161.611 E9.36318
G1 X179.824 Y162.798 E9.4031
G1 X179.787 Y162.975 E9.40912
G1 X179.676 Y163.451 E9.42537
G1 X179.584 Y163.808 E9.43764
G1 X179.247 Y164.877 E9.47492
G1 X179.195 Y165.016 E9.47985
G1 X179.001 Y165.497 E9.4971
G1 X178.898 Y165.736 E9.50576
G1 X178.315 Y166.89 E9.54876
G1 X177.99 Y167.446 E9.57018
G1 X177.492 Y168.22 E9.60079
G1 X177.116 Y168.719 E9.62157
G1 X177.016 Y168.844 E9.6269
G1 X176.701 Y169.219 E9.64319
G1 X176.469 Y169.483 E9.65488
G1 X175.709 Y170.264 E9.69112
G1 X175.574 Y170.389 E9.69724
G1 X175.124 Y170.782 E9.71711
G1 X174.836 Y171.02 E9.72954
G1 X173.907 Y171.706 E9.76795
G1 X173.799 Y171.777 E9.77225
G1 X173.392 Y172.032 E9.78822
G1 X173.143 Y172.18 E9.79786
G1 X172.008 Y172.765 E9.84033
G1 X171.419 Y173.025 E9.86174
G1 X170.561 Y173.36 E9.89238
G1 X169.865 Y173.571 E9.91656
G1 X169.726 Y173.608 E9.92135
G1 X169.34 Y173.703 E9.93457
G1 X168.969 Y173.787 E9.94722
G1 X167.753 Y173.989 E9.98822
G1 X167.575 Y174.008 E9.99417
G1 X167.129 Y174.046 E10.00906
G1 X166.802 Y174.067 E10.01996
G1 X166.374 Y174.087 E10.03421
G1 X166.082 Y174.094 E10.04393
G1 X165.507 Y174.1 E10.06305
G1 X134.457 Y174.099 E11.09578
G1 X133.751 Y174.089 E11.11926
G1 X133.457 Y174.081 E11.12905
G1 X133.314 Y174.075 E11.13381
G1 X132.776 Y174.038 E11.15174
G1 X132.389 Y174.002 E11.16467
G1 X131.202 Y173.824 E11.20459
G1 X131.025 Y173.787 E11.2106
G1 X130.588 Y173.686 E11.22552
G1 X130.245 Y173.599 E11.23729
G1 X129.115 Y173.244 E11.27669
G1 X128.961 Y173.186 E11.28216
G1 X128.512 Y173.005 E11.29826
G1 X128.27 Y172.901 E11.30702
G1 X127.102 Y172.311 E11.35055
G1 X126.55 Y171.988 E11.37182
G1 X125.776 Y171.489 E11.40245
G1 X125.281 Y171.116 E11.42306
G1 X125.156 Y171.016 E11.42839
G1 X124.767 Y170.689 E11.44529
G1 X124.496 Y170.45 E11.45731
G1 X123.716 Y169.687 E11.4936
G1 X123.597 Y169.558 E11.49943
G1 X123.217 Y169.123 E11.51865
G1 X122.979 Y168.835 E11.53107
G1 X122.256 Y167.85 E11.57171
G1 X122.173 Y167.722 E11.57679
G1 X121.946 Y167.356 E11.59111
G1 X121.811 Y167.128 E11.59992
G1 X121.235 Y166.008 E11.64181
G1 X120.975 Y165.419 E11.66323
G1 X120.64 Y164.561 E11.69386
G1 X120.436 Y163.891 E11.71716
G1 X120.397 Y163.746 E11.72215
G1 X120.291 Y163.316 E11.73688
G1 X120.209 Y162.951 E11.74932
G1 X120.008 Y161.729 E11.79051
G1 X119.989 Y161.547 E11.7966
G1 X119.954 Y161.134 E11.81038
G1 X119.933 Y160.811 E11.82115
G1 X119.913 Y160.374 E11.8357
G1 X119.906 Y160.082 E11.84541
G1 X119.9 Y159.507 E11.86454
G1 X119.901 Y140.457 E12.49815
G1 X119.911 Y139.75 E12.52166
G1 X119.919 Y139.453 E12.53154
G1 X119.925 Y139.311 E12.53627
G1 X119.962 Y138.776 E12.55411
G1 X119.998 Y138.389 E12.56704
G1 X120.176 Y137.202 E12.60696
G1 X120.213 Y137.025 E12.61297
G1 X120.326 Y136.542 E12.62947
G1 X120.418 Y136.186 E12.6417
G1 X120.764 Y135.095 E12.67977
G1 X120.821 Y134.944 E12.68514
G1 X121.004 Y134.491 E12.70139
G1 X121.104 Y134.259 E12.70979
G1 X121.689 Y133.102 E12.75291
G1 X122.012 Y132.55 E12.77418
G1 X122.511 Y131.776 E12.80481
G1 X122.884 Y131.281 E12.82543
G1 X122.984 Y131.156 E12.83075
G1 X123.298 Y130.781 E12.84702
G1 X123.537 Y130.509 E12.85906
G1 X124.379 Y129.654 E12.89897
G0 F6000 X124.647 Y129.951
G1 F1200 X124.776 Y129.834 E12.90476
G1 X125.126 Y129.531 E12.92016
G1 X125.416 Y129.291 E12.93268
G1 X126.312 Y128.629 E12.96973
G1 X126.429 Y128.552 E12.97439
G1 X126.843 Y128.293 E12.99064
G1 X127.078 Y128.154 E12.99972
G1 X128.156 Y127.6 E13.04003
G1 X128.748 Y127.339 E13.06155
G1 X129.59 Y127.011 E13.0916
G1 X130.222 Y126.82 E13.11356
G1 X130.36 Y126.783 E13.11831
G1 X130.743 Y126.688 E13.13144
G1 X131.113 Y126.604 E13.14406
G1 X132.294 Y126.408 E13.18388
G1 X132.473 Y126.389 E13.18986
G1 X132.896 Y126.353 E13.20398
G1 X133.223 Y126.332 E13.21488
G1 X133.641 Y126.313 E13.2288
G1 X133.922 Y126.306 E13.23815
G1 X134.493 Y126.3 E13.25714
G1 X165.393 Y126.3 E14.28488
G1 X166.243 Y126.311 E14.31315
G1 X166.664 Y126.325 E14.32716
G1 X167.197 Y126.361 E14.34493
G1 X167.581 Y126.397 E14.35776
G1 X168.716 Y126.568 E14.39593
G1 X168.893 Y126.605 E14.40195
G1 X169.339 Y126.709 E14.41718
G1 X169.69 Y126.799 E14.42923
G1 X170.753 Y127.134 E14.4663
G1 X170.899 Y127.189 E14.47149
G1 X171.33 Y127.363 E14.48695
G1 X171.572 Y127.467 E14.49571
G1 X172.696 Y128.034 E14.53758
G1 X173.248 Y128.357 E14.55885
G1 X174.007 Y128.848 E14.58892
G1 X174.469 Y129.196 E14.60816
G1 X174.594 Y129.296 E14.61348
G1 X174.955 Y129.599 E14.62916
G1 X175.219 Y129.831 E14.64085
G1 X175.97 Y130.563 E14.67573
G1 X176.095 Y130.698 E14.68185
G1 X176.476 Y131.133 E14.70108
G1 X176.713 Y131.42 E14.71346
G1 X177.36 Y132.294 E14.74963
G1 X177.43 Y132.4 E14.75385
G1 X177.683 Y132.804 E14.76971
G1 X177.833 Y133.056 E14.77946
G1 X178.399 Y134.154 E14.82055
G1 X178.659 Y134.743 E14.84196
G1 X178.987 Y135.584 E14.87198
G1 X179.185 Y136.238 E14.89471
G1 X179.222 Y136.377 E14.8995
G1 X179.311 Y136.739 E14.91189
G1 X179.394 Y137.104 E14.92434
G1 X179.588 Y138.264 E14.96346
G1 X179.608 Y138.448 E14.96962
G1 X179.647 Y138.894 E14.98451
G1 X179.668 Y139.22 E14.99537
G1 X179.682 Y139.486 E15.00423
G1 X179.688 Y139.643 E15.00946
G1 X179.694 Y139.922 E15.01874
G1 X179.7 Y140.493 E15.03773
G1 X179.699 Y159.537 E15.67114
G1 X179.689 Y160.243 E15.69462
G1 X179.675 Y160.67 E15.70883
G1 X179.64 Y161.187 E15.72607
G1 X179.604 Y161.574 E15.739
G1 X179.432 Y162.716 E15.77741
G1 X179.395 Y162.893 E15.78342
G1 X179.288 Y163.351 E15.79906
G1 X179.196 Y163.708 E15.81133
G1 X178.872 Y164.737 E15.84721
G1 X178.82 Y164.876 E15.85214
G1 X178.634 Y165.339 E15.86874
G1 X178.531 Y165.578 E15.8774
G1 X177.97 Y166.688 E15.91876
G1 X177.645 Y167.244 E15.94018
G1 X177.155 Y168.003 E15.97023
G1 X176.804 Y168.469 E15.98963
G1 X176.704 Y168.594 E15.99496
G1 X176.401 Y168.955 E16.01063
G1 X176.169 Y169.219 E16.02232
G1 X175.437 Y169.97 E16.0572
G1 X175.302 Y170.095 E16.06332
G1 X174.87 Y170.474 E16.08244
G1 X174.582 Y170.712 E16.09486
G1 X173.687 Y171.372 E16.13185
G1 X173.579 Y171.443 E16.13615
G1 X173.188 Y171.688 E16.1515
G1 X172.939 Y171.836 E16.16113
G1 X171.846 Y172.399 E16.20202
G1 X171.257 Y172.659 E16.22344
G1 X170.416 Y172.987 E16.25346
G1 X169.762 Y173.185 E16.27619
G1 X169.623 Y173.222 E16.28097
G1 X169.251 Y173.313 E16.29371
G1 X168.88 Y173.397 E16.30636
G1 X167.711 Y173.591 E16.34577
G1 X167.533 Y173.61 E16.35173
G1 X167.104 Y173.647 E16.36605
G1 X166.777 Y173.668 E16.37695
G1 X166.359 Y173.687 E16.39087
G1 X166.078 Y173.694 E16.40021
G1 X165.507 Y173.7 E16.41921
G1 X134.463 Y173.699 E17.45173
G1 X133.757 Y173.689 E17.47522
G1 X133.33 Y173.675 E17.48943
G1 X132.813 Y173.64 E17.50666
G1 X132.426 Y173.604 E17.51959
G1 X131.284 Y173.432 E17.558
G1 X131.107 Y173.395 E17.56402
G1 X130.686 Y173.298 E17.57839
G1 X130.343 Y173.211 E17.59015
G1 X129.256 Y172.869 E17.62806
G1 X129.102 Y172.811 E17.63353
G1 X128.67 Y172.637 E17.64902
G1 X128.428 Y172.533 E17.65778
G1 X127.304 Y171.966 E17.69965
G1 X126.752 Y171.643 E17.72092
G1 X125.993 Y171.152 E17.75099
G1 X125.531 Y170.804 E17.77023
G1 X125.406 Y170.704 E17.77555
G1 X125.031 Y170.389 E17.79184
G1 X124.76 Y170.15 E17.80386
G1 X124.01 Y169.416 E17.83876
G1 X123.891 Y169.287 E17.8446
G1 X123.525 Y168.869 E17.86308
G1 X123.287 Y168.581 E17.8755
G1 X122.592 Y167.632 E17.91463
G1 X122.509 Y167.504 E17.9197
G1 X122.29 Y167.152 E17.93349
G1 X122.155 Y166.924 E17.9423
G1 X121.601 Y165.846 E17.98262
G1 X121.341 Y165.257 E18.00403
G1 X121.013 Y164.416 E18.03405
G1 X120.822 Y163.787 E18.05592
G1 X120.783 Y163.642 E18.06091
G1 X120.681 Y163.229 E18.07506
G1 X120.599 Y162.864 E18.0875
G1 X120.406 Y161.687 E18.12717
G1 X120.387 Y161.505 E18.13326
G1 X120.353 Y161.108 E18.14651
G1 X120.332 Y160.785 E18.15728
G1 X120.313 Y160.359 E18.17146
G1 X120.306 Y160.078 E18.18081
G1 X120.3 Y159.507 E18.1998
G1 X120.301 Y140.463 E18.83321
G1 X120.311 Y139.756 E18.85673
G1 X120.325 Y139.327 E18.871
G1 X120.36 Y138.813 E18.88814
G1 X120.396 Y138.426 E18.90106
